flaticon/science/burner.svg

<svg xmlns="http://www.w3.org/2000/svg" width="32" height="32" viewBox="0 0 24 24">
    <path d="M 20.398438 15.199219 L 19.601562 15.199219 C 18.921875 15.199219 18.398438 15.761719 18.398438 16.398438 L 17.601562 16.398438 L 17.601562 14.800781 C 17.601562 14.558594 17.441406 14.398438 17.199219 14.398438 L 15.601562 14.398438 L 15.601562 12.800781 L 16.800781 12.800781 C 17.039062 12.800781 17.199219 12.640625 17.199219 12.398438 L 17.199219 9.601562 C 17.199219 9.359375 17.039062 9.199219 16.800781 9.199219 L 14.039062 9.199219 L 14.121094 9.121094 C 15.558594 7.878906 15.878906 5.839844 14.960938 4.160156 L 12.921875 0.519531 C 12.71875 0.199219 12.398438 0 12 0 C 11.601562 0 11.28125 0.199219 11.078125 0.558594 L 9.039062 4.199219 C 8.121094 5.839844 8.480469 7.878906 9.878906 9.160156 L 9.921875 9.199219 L 7.199219 9.199219 C 6.960938 9.199219 6.800781 9.359375 6.800781 9.601562 L 6.800781 12.398438 C 6.800781 12.640625 6.960938 12.800781 7.199219 12.800781 L 8.398438 12.800781 L 8.398438 14.398438 L 6.800781 14.398438 C 6.558594 14.398438 6.398438 14.558594 6.398438 14.800781 L 6.398438 21.601562 L 2.800781 21.601562 C 2.558594 21.601562 2.398438 21.761719 2.398438 22 L 2.398438 23.601562 C 2.398438 23.839844 2.558594 24 2.800781 24 L 21.199219 24 C 21.441406 24 21.601562 23.839844 21.601562 23.601562 L 21.601562 22 C 21.601562 21.761719 21.441406 21.601562 21.199219 21.601562 L 17.601562 21.601562 L 17.601562 19.601562 L 18.398438 19.601562 C 18.398438 20.28125 18.960938 20.800781 19.601562 20.800781 L 20.398438 20.800781 C 21.078125 20.800781 21.601562 20.28125 21.601562 19.601562 L 21.601562 16.398438 C 21.601562 15.71875 21.039062 15.199219 20.398438 15.199219 Z M 19.199219 17.601562 L 20.800781 17.601562 L 20.800781 18.398438 L 19.199219 18.398438 Z M 19.199219 16.398438 C 19.199219 16.160156 19.398438 16 19.601562 16 L 20.398438 16 C 20.640625 16 20.800781 16.199219 20.800781 16.398438 L 20.800781 16.800781 L 19.199219 16.800781 Z M 16.398438 12 L 15.601562 12 L 15.601562 10 L 16.398438 10 Z M 14.800781 10 L 14.800781 12 L 14 12 L 14 10 Z M 12.398438 12 L 12.398438 10 L 13.199219 10 L 13.199219 12 Z M 10.800781 12 L 10.800781 10 L 11.601562 10 L 11.601562 12 Z M 9.199219 12 L 9.199219 10 L 10 10 L 10 12 Z M 12.480469 8.960938 L 12.398438 9.039062 C 12.160156 9.238281 11.800781 9.238281 11.558594 9.039062 L 11.480469 8.960938 C 10.921875 8.441406 10.761719 7.601562 11.160156 6.921875 L 12 5.28125 L 12.800781 6.921875 C 13.199219 7.601562 13.039062 8.441406 12.480469 8.960938 Z M 9.761719 4.558594 L 11.800781 0.921875 C 11.839844 0.800781 11.960938 0.800781 12 0.800781 C 12.039062 0.800781 12.160156 0.800781 12.199219 0.921875 L 14.238281 4.558594 C 14.929688 5.824219 14.699219 7.421875 13.695312 8.433594 C 13.875 7.824219 13.808594 7.148438 13.480469 6.558594 L 12.601562 4.800781 C 12.480469 4.558594 12.238281 4.398438 11.960938 4.398438 C 11.679688 4.398438 11.441406 4.558594 11.320312 4.800781 L 10.441406 6.558594 C 10.125 7.121094 10.0625 7.757812 10.21875 8.339844 C 9.246094 7.300781 9.050781 5.789062 9.761719 4.558594 Z M 7.601562 10 L 8.398438 10 L 8.398438 12 L 7.601562 12 Z M 9.199219 12.800781 L 14.800781 12.800781 L 14.800781 14.398438 L 9.199219 14.398438 Z M 20.800781 23.199219 L 3.199219 23.199219 L 3.199219 22.398438 L 20.800781 22.398438 Z M 7.199219 21.601562 L 7.199219 20.800781 L 10.398438 20.800781 C 10.640625 20.800781 10.800781 20.640625 10.800781 20.398438 C 10.800781 20.160156 10.640625 20 10.398438 20 L 7.199219 20 L 7.199219 19.199219 L 9.199219 19.199219 C 9.441406 19.199219 9.601562 19.039062 9.601562 18.800781 C 9.601562 18.558594 9.441406 18.398438 9.199219 18.398438 L 7.199219 18.398438 L 7.199219 17.601562 L 8 17.601562 C 8.238281 17.601562 8.398438 17.441406 8.398438 17.199219 C 8.398438 16.960938 8.238281 16.800781 8 16.800781 L 7.199219 16.800781 L 7.199219 15.199219 L 16.800781 15.199219 L 16.800781 21.601562 Z M 17.601562 18.800781 L 17.601562 17.199219 L 18.398438 17.199219 L 18.398438 18.800781 Z M 20.398438 20 L 19.601562 20 C 19.359375 20 19.199219 19.800781 19.199219 19.601562 L 19.199219 19.199219 L 20.800781 19.199219 L 20.800781 19.601562 C 20.800781 19.839844 20.601562 20 20.398438 20 Z M 20.398438 20"/>
</svg>

<svg xmlns="http://www.w3.org/2000/svg" width="32" height="32" viewBox="0 0 24 24">
    <path d="M20.398 15.2h-.796c-.68 0-1.204.562-1.204 1.198h-.796v-1.597c0-.242-.16-.403-.403-.403h-1.597v-1.597H16.8c.238 0 .398-.16.398-.403V9.602c0-.243-.16-.403-.398-.403h-2.762l.082-.078c1.438-1.242 1.758-3.281.84-4.96L12.92.52A1.066 1.066 0 0 0 12 0c-.398 0-.719.2-.922.559L9.04 4.199c-.918 1.64-.559 3.68.84 4.961l.043.04H7.199c-.238 0-.398.16-.398.402v2.796c0 .243.16.403.398.403h1.2v1.597H6.8c-.242 0-.403.16-.403.403v6.8H2.801c-.242 0-.403.16-.403.399v1.602c0 .238.16.398.403.398h18.398c.242 0 .403-.16.403-.398V22c0-.238-.16-.398-.403-.398h-3.597v-2h.796c0 .68.563 1.199 1.204 1.199h.796c.68 0 1.204-.52 1.204-1.2v-3.203c0-.68-.563-1.199-1.204-1.199zM19.2 17.601h1.602v.796h-1.602zm0-1.204a.4.4 0 0 1 .403-.398h.796a.4.4 0 0 1 .403.398v.403h-1.602zM16.4 12h-.797v-2h.796zM14.8 10v2H14v-2zm-2.403 2v-2h.801v2zm-1.597 0v-2h.8v2zm-1.602 0v-2H10v2zm3.281-3.04l-.082.08c-.238.198-.597.198-.84 0l-.078-.08c-.558-.519-.718-1.358-.32-2.038l.84-1.64.8 1.64c.4.68.24 1.52-.32 2.039zM9.762 4.56L11.8.922C11.84.8 11.96.8 12 .8c.04 0 .16 0 .2.12l2.038 3.638a3.299 3.299 0 0 1-.543 3.875c.18-.61.114-1.286-.215-1.875L12.602 4.8a.712.712 0 0 0-1.281 0l-.88 1.758a2.366 2.366 0 0 0-.222 1.78c-.973-1.038-1.168-2.55-.457-3.78zM7.602 10h.796v2h-.796zm1.597 2.8h5.602v1.598H9.199zm11.602 10.4H3.199v-.802h17.602zM7.199 21.601V20.8h3.2c.242 0 .402-.16.402-.403 0-.238-.16-.398-.403-.398H7.2v-.8h2c.242 0 .403-.16.403-.4 0-.241-.16-.402-.403-.402h-2v-.796H8c.238 0 .398-.16.398-.403 0-.238-.16-.398-.398-.398h-.8v-1.602h9.6v6.403zM17.602 18.8v-1.602h.796v1.602zM20.398 20h-.796a.4.4 0 0 1-.403-.398v-.403h1.602v.403a.4.4 0 0 1-.403.398zm0 0"/>
</svg>
